world_stage/static/flags/rect/zaf.svg

<svg height="600" viewBox="0 0 899.84003 600" width="899.84003" xmlns="http://www.w3.org/2000/svg" xmlns:xlink="http://www.w3.org/1999/xlink"><clipPath id="a"><path d="m0 0h674.88v450h-674.88z" transform="translate(-337.37991 -225.00001)"/></clipPath><clipPath id="b"><path d="m0 .08 337.38 224.92-337.38 224.92z" transform="translate(.1201 -450.00001)"/></clipPath><clipPath id="c"><path d="m0 0h674.88v450h-674.88z" transform="translate(-337.37991 -225.00001)"/></clipPath><path d="m0 0h674.88v450h-674.88z" fill="#002395" transform="matrix(1.3333333 0 0 -1.3333333 0 600)"/><path d="m0 225h674.88v225h-674.88z" fill="#de3831" transform="matrix(1.3333333 0 0 -1.3333333 0 600)"/><path d="m0 0 337.38 224.92-337.38 224.92zm337.38 224.92h337.5z" transform="matrix(1.3333333 0 0 -1.3333333 0 599.8936)"/><path clip-path="url(#a)" d="m0 0h337.5m-675 225 337.5-225-337.5-225" fill="none" stroke="#fff" stroke-width="150" transform="matrix(1.3333333 0 0 -1.3333333 449.83987 300)"/><path d="m0 0 337.38 224.92-337.38 224.92z" transform="matrix(1.3333333 0 0 -1.3333333 0 599.8932)"/><g fill="none"><path clip-path="url(#b)" d="m0 0 337.5-225-337.5-225" stroke="#ffb612" stroke-width="150" transform="matrix(1.3333333 0 0 -1.3333333 -.160133 0)"/><path clip-path="url(#c)" d="m0 0h337.5m-675 225 337.5-225-337.5-225" stroke="#007a4d" stroke-width="90" transform="matrix(1.3333333 0 0 -1.3333333 449.83987 300)"/></g></svg>

<?xml version="1.0" encoding="UTF-8" standalone="no"?>
<!-- Created with Inkscape (http://www.inkscape.org/) -->

<svg
   version="1.1"
   id="svg1"
   width="899.84003"
   height="600"
   viewBox="0 0 899.84003 600"
   sodipodi:docname="za.ai"
   xmlns:inkscape="http://www.inkscape.org/namespaces/inkscape"
   xmlns:sodipodi="http://sodipodi.sourceforge.net/DTD/sodipodi-0.dtd"
   xmlns="http://www.w3.org/2000/svg"
   xmlns:svg="http://www.w3.org/2000/svg">
  <defs
     id="defs1">
    <clipPath
       clipPathUnits="userSpaceOnUse"
       id="clipPath5">
      <path
         d="M 0,0 H 674.88 V 450 H 0 Z"
         transform="translate(-337.37991,-225.00001)"
         id="path5" />
    </clipPath>
    <clipPath
       clipPathUnits="userSpaceOnUse"
       id="clipPath8">
      <path
         d="M 0,0.08 337.38,225 0,449.92 Z"
         transform="translate(0.1201,-450.00001)"
         id="path8" />
    </clipPath>
    <clipPath
       clipPathUnits="userSpaceOnUse"
       id="clipPath10">
      <path
         d="M 0,0 H 674.88 V 450 H 0 Z"
         transform="translate(-337.37991,-225.00001)"
         id="path10" />
    </clipPath>
  </defs>
  <sodipodi:namedview
     id="namedview1"
     pagecolor="#ffffff"
     bordercolor="#000000"
     borderopacity="0.25"
     inkscape:showpageshadow="2"
     inkscape:pageopacity="0.0"
     inkscape:pagecheckerboard="0"
     inkscape:deskcolor="#d1d1d1">
    <inkscape:page
       x="0"
       y="0"
       inkscape:label="1"
       id="page1"
       width="899.84003"
       height="600"
       margin="0"
       bleed="0" />
  </sodipodi:namedview>
  <g
     id="layer-MC0"
     inkscape:groupmode="layer"
     inkscape:label="Layer 1">
    <path
       id="path1"
       d="M 0,0 H 674.88 V 450 H 0 Z"
       style="fill:#002395;fill-opacity:1;fill-rule:nonzero;stroke:none"
       transform="matrix(1.3333333,0,0,-1.3333333,0,600)" />
    <path
       id="path2"
       d="M 0,225 H 674.88 V 450 H 0 Z"
       style="fill:#de3831;fill-opacity:1;fill-rule:nonzero;stroke:none"
       transform="matrix(1.3333333,0,0,-1.3333333,0,600)" />
    <path
       id="path3"
       d="M 0,0 337.38,224.92 0,449.84 Z m 337.38,224.92 h 337.5 z"
       style="fill:#000000;fill-opacity:1;fill-rule:nonzero;stroke:none"
       transform="matrix(1.3333333,0,0,-1.3333333,0,599.8936)" />
    <path
       id="path4"
       d="M 0,0 H 337.5 M -337.5,225 0,0 -337.5,-225"
       style="fill:none;stroke:#ffffff;stroke-width:150;stroke-linecap:butt;stroke-linejoin:miter;stroke-miterlimit:4;stroke-dasharray:none;stroke-opacity:1"
       transform="matrix(1.3333333,0,0,-1.3333333,449.83987,300)"
       clip-path="url(#clipPath5)" />
    <path
       id="path6"
       d="M 0,0 337.38,224.92 0,449.84 Z"
       style="fill:#000000;fill-opacity:1;fill-rule:nonzero;stroke:none"
       transform="matrix(1.3333333,0,0,-1.3333333,0,599.8932)" />
    <path
       id="path7"
       d="M 0,0 337.5,-225 0,-450"
       style="fill:none;stroke:#ffb612;stroke-width:150;stroke-linecap:butt;stroke-linejoin:miter;stroke-miterlimit:4;stroke-dasharray:none;stroke-opacity:1"
       transform="matrix(1.3333333,0,0,-1.3333333,-0.16013333,0)"
       clip-path="url(#clipPath8)" />
    <path
       id="path9"
       d="M 0,0 H 337.5 M -337.5,225 0,0 -337.5,-225"
       style="fill:none;stroke:#007a4d;stroke-width:90;stroke-linecap:butt;stroke-linejoin:miter;stroke-miterlimit:4;stroke-dasharray:none;stroke-opacity:1"
       transform="matrix(1.3333333,0,0,-1.3333333,449.83987,300)"
       clip-path="url(#clipPath10)" />
  </g>
</svg>
